SF_Symbols/location.fill.svg

<?xml version="1.0" encoding="UTF-8"?>
<svg xmlns="http://www.w3.org/2000/svg" xmlns:xlink="http://www.w3.org/1999/xlink" width="24" height="24" viewBox="0 0 24 24" version="1.1">
<g id="surface1">
<path style=" stroke:none;fill-rule:nonzero;fill:rgb(100%,100%,100%);fill-opacity:1;" d="M 1.789062 12.585938 L 10.898438 12.625 C 10.992188 12.625 11.054688 12.644531 11.085938 12.6875 C 11.128906 12.722656 11.148438 12.785156 11.148438 12.875 L 11.175781 21.914062 C 11.175781 22.289062 11.25 22.601562 11.398438 22.851562 C 11.558594 23.101562 11.761719 23.285156 12.011719 23.398438 C 12.261719 23.523438 12.527344 23.570312 12.8125 23.539062 C 13.097656 23.511719 13.363281 23.402344 13.613281 23.210938 C 13.871094 23.027344 14.082031 22.757812 14.25 22.398438 L 23.488281 2.539062 C 23.695312 2.078125 23.773438 1.671875 23.726562 1.3125 C 23.675781 0.953125 23.523438 0.667969 23.273438 0.449219 C 23.035156 0.226562 22.726562 0.0976562 22.351562 0.0625 C 21.984375 0.0273438 21.578125 0.117188 21.136719 0.324219 L 1.164062 9.585938 C 0.835938 9.738281 0.589844 9.933594 0.425781 10.175781 C 0.257812 10.417969 0.164062 10.679688 0.136719 10.960938 C 0.113281 11.238281 0.160156 11.5 0.273438 11.75 C 0.398438 11.992188 0.585938 12.191406 0.835938 12.351562 C 1.085938 12.5 1.402344 12.578125 1.789062 12.585938 Z M 1.789062 12.585938 "/>
</g>
</svg>

<svg xmlns="http://www.w3.org/2000/svg" width="24" height="24"><path style="stroke:none;fill-rule:nonzero;fill:#fff;fill-opacity:1" d="m1.79 12.586 9.108.039c.094 0 .157.02.188.063.043.035.062.097.062.187l.028 9.04c0 .374.074.687.222.937.16.25.364.433.614.546.25.125.515.172.8.141.286-.027.551-.137.801-.328.258-.184.469-.453.637-.813L23.488 2.54c.207-.46.285-.867.239-1.227a1.36 1.36 0 0 0-.454-.863c-.238-.222-.546-.351-.921-.387-.368-.035-.774.055-1.215.262L1.164 9.586c-.328.152-.574.348-.738.59-.164.23-.262.504-.29.785-.023.277.024.539.137.789.125.242.313.441.563.602.25.148.566.226.953.234Zm0 0"/></svg>
